resc/svg/facebook.svg

<svg xmlns="http://www.w3.org/2000/svg" width="24" height="24" viewBox="0 0 24 24"><path d="M9 8h-3v4h3v12h5v-12h3.642l.358-4h-4v-1.667c0-.955.192-1.333 1.115-1.333h2.885v-5h-3.808c-3.596 0-5.192 1.583-5.192 4.615v3.385z"/></svg>

<svg xmlns="http://www.w3.org/2000/svg" width="24" height="24"><path d="M9 8H6v4h3v12h5V12h3.642L18 8h-4V6.333C14 5.378 14.192 5 15.115 5H18V0h-3.808C10.596 0 9 1.583 9 4.615V8z"/></svg>
